common/src/main/resources/icons/plugins/datagrip/expui/SQLDMLStatement.svg

<svg xmlns="http://www.w3.org/2000/svg" width="16" height="16" fill="#FF8A65" data-big="true" viewBox="0 0 24 24"><path d="M7 5h14v2H7zm0 8v-2h14v2zM4 4.5A1.5 1.5 0 0 1 5.5 6 1.5 1.5 0 0 1 4 7.5 1.5 1.5 0 0 1 2.5 6 1.5 1.5 0 0 1 4 4.5m0 6A1.5 1.5 0 0 1 5.5 12 1.5 1.5 0 0 1 4 13.5 1.5 1.5 0 0 1 2.5 12 1.5 1.5 0 0 1 4 10.5M7 19v-2h14v2zm-3-2.5A1.5 1.5 0 0 1 5.5 18 1.5 1.5 0 0 1 4 19.5 1.5 1.5 0 0 1 2.5 18 1.5 1.5 0 0 1 4 16.5"/></svg>

<!--
  - The MIT License (MIT)
  -
  - Copyright (c) 2015-2024 Elior "Mallowigi" Boukhobza
  -
  - Permission is hereby granted, free of charge, to any person obtaining a copy
  - of this software and associated documentation files (the "Software"), to deal
  - in the Software without restriction, including without limitation the rights
  - to use, copy, modify, merge, publish, distribute, sublicense, and/or sell
  - copies of the Software, and to permit persons to whom the Software is
  - furnished to do so, subject to the following conditions:
  -
  - The above copyright notice and this permission notice shall be included in all
  - copies or substantial portions of the Software.
  -
  - THE SOFTWARE IS PROVIDED "AS IS", WITHOUT WARRANTY OF ANY KIND, EXPRESS OR
  - IMPLIED, INCLUDING BUT NOT LIMITED TO THE WARRANTIES OF MERCHANTABILITY,
  - FITNESS FOR A PARTICULAR PURPOSE AND NONINFRINGEMENT. IN NO EVENT SHALL THE
  - AUTHORS OR COPYRIGHT HOLDERS BE LIABLE FOR ANY CLAIM, DAMAGES OR OTHER
  - LIABILITY, WHETHER IN AN ACTION OF CONTRACT, TORT OR OTHERWISE, ARISING FROM,
  - OUT OF OR IN CONNECTION WITH THE SOFTWARE OR THE USE OR OTHER DEALINGS IN THE
  - SOFTWARE.
  -->


<svg data-big="true" xmlns="http://www.w3.org/2000/svg" version="1.1" width="16px" height="16px" fill="#FF8A65"
     viewBox="0 0 24 24">
  <path
    d="M7,5H21V7H7V5M7,13V11H21V13H7M4,4.5A1.5,1.5 0 0,1 5.5,6A1.5,1.5 0 0,1 4,7.5A1.5,1.5 0 0,1 2.5,6A1.5,1.5 0 0,1 4,4.5M4,10.5A1.5,1.5 0 0,1 5.5,12A1.5,1.5 0 0,1 4,13.5A1.5,1.5 0 0,1 2.5,12A1.5,1.5 0 0,1 4,10.5M7,19V17H21V19H7M4,16.5A1.5,1.5 0 0,1 5.5,18A1.5,1.5 0 0,1 4,19.5A1.5,1.5 0 0,1 2.5,18A1.5,1.5 0 0,1 4,16.5Z"/>
</svg>
